X: 7341
T: Cliffs Of Moher, The
R: jig
M: 6/8
K: Gmajor
|:d|~a3 bag|eaf ged|c2A BAG|EFG A2e|
~a3 bag|e/f/af ged|cBA BAG|EFG A2:|
|:d|~e3 dBA|~e dBA|G2B dBA|~G3 dBd|
[1~e3 dBA|e/f/ge dBA|GAB dB/c/d|edB A2:|
[2~d3 dee|cee Bee|EFG AGE|dBe A2||

